libs/ui/packages/crypto-icons/src/svg/SAN.svg

<svg width="24" height="24" viewBox="0 0 24 24" fill="none">
<path d="M20.25 12.0296C20.2147 16.6106 16.5022 20.2841 11.9422 20.2496C7.37847 20.2159 3.71322 16.4868 3.74997 11.9156C3.78747 7.38785 7.51047 3.72035 12.0375 3.75035C16.5975 3.7811 20.283 7.49735 20.25 12.0304V12.0296ZM4.34697 12.0034C4.35522 16.2183 7.76547 19.6211 11.9887 19.6309C16.2165 19.6384 19.6657 16.2123 19.6515 11.9929C19.6357 7.59785 15.9952 4.28285 11.805 4.35485C7.75347 4.42385 4.33872 7.86785 4.34697 12.0034ZM14.0107 8.42135L13.7055 9.39785C13.137 9.3041 12.6105 9.19235 12.0772 9.13985C11.7607 9.1091 11.4322 9.1916 11.31 9.54785C11.184 9.9131 11.169 10.3024 11.4712 10.5844C11.7817 10.8731 12.1462 11.1019 12.4867 11.3584C12.7995 11.5939 13.1437 11.7994 13.4167 12.0746C14.157 12.8216 14.2882 13.7276 13.9845 14.7041C13.8045 15.2831 13.3755 15.6491 12.8265 15.8711C11.9865 16.2116 10.5562 16.0436 9.75297 15.5036L10.1055 14.4806C10.617 14.6156 11.085 14.7776 11.5665 14.8541C12.0255 14.9269 12.5062 14.8564 12.7417 14.3876C12.9787 13.9151 12.9037 13.4179 12.5325 13.0384C12.246 12.7459 11.8867 12.5231 11.5515 12.2794C11.328 12.1173 11.0782 11.9899 10.8607 11.8204C10.439 11.4979 10.1387 11.0423 10.0087 10.5276C9.87866 10.0129 9.92651 9.4694 10.1445 8.98535C10.2405 8.7542 10.3909 8.54961 10.5828 8.3889C10.7747 8.22818 11.0025 8.11609 11.247 8.0621C12.1882 7.8386 13.101 7.93985 14.0107 8.4221V8.42135ZM7.95072 11.8638C7.95073 12.1148 7.85172 12.3556 7.67519 12.5339C7.49867 12.7123 7.25889 12.8138 7.00797 12.8163C6.48297 12.8186 6.03447 12.3611 6.04647 11.8384C6.05635 11.5876 6.16292 11.3504 6.34385 11.1764C6.52477 11.0025 6.766 10.9053 7.01697 10.9054C7.54197 10.9129 7.95447 11.3366 7.95147 11.8638H7.95072ZM17.0205 10.9316C17.544 10.9309 17.934 11.3171 17.9407 11.8436C17.9436 11.9708 17.921 12.0973 17.8741 12.2156C17.8273 12.3339 17.7571 12.4416 17.6679 12.5323C17.5787 12.623 17.4721 12.6949 17.3546 12.7437C17.2371 12.7925 17.111 12.8172 16.9837 12.8163C16.7326 12.8122 16.4932 12.7093 16.3174 12.5299C16.1417 12.3505 16.0437 12.109 16.0447 11.8579C16.0447 11.3089 16.4422 10.9316 17.0205 10.9316Z" fill="#2B77B3"/>
</svg>

<svg width="24" height="24" viewBox="0 0 24 24" fill="none"><path fill="#2b77b3" d="M20.25 12.03c-.035 4.58-3.748 8.254-8.308 8.22-4.564-.034-8.229-3.763-8.192-8.334.037-4.528 3.76-8.196 8.288-8.166 4.56.031 8.245 3.747 8.212 8.28m-15.903-.027c.008 4.215 3.418 7.618 7.642 7.628 4.227.007 7.677-3.419 7.662-7.638-.015-4.395-3.656-7.71-7.846-7.638-4.052.069-7.466 3.513-7.458 7.648m9.664-3.582-.305.977c-.569-.094-1.095-.206-1.629-.258-.316-.03-.645.052-.767.408-.126.365-.141.754.161 1.036.31.29.675.518 1.016.774.313.236.657.441.93.717.74.747.871 1.653.568 2.63-.18.578-.61.944-1.158 1.166-.84.34-2.27.173-3.074-.367l.352-1.023c.512.135.98.297 1.461.373.46.073.94.002 1.176-.466.237-.473.162-.97-.21-1.35-.286-.292-.645-.515-.98-.759-.224-.162-.474-.29-.691-.459a2.35 2.35 0 0 1-.716-2.835 1.56 1.56 0 0 1 1.102-.923c.941-.223 1.854-.122 2.764.36m-6.06 3.443a.95.95 0 0 1-.943.952.976.976 0 0 1-.962-.978.97.97 0 0 1 .971-.933.945.945 0 0 1 .934.959m9.07-.932a.896.896 0 0 1 .92.912.95.95 0 0 1-.957.972.955.955 0 0 1-.94-.958c0-.55.398-.926.976-.926"/></svg>
